static/img/lego.svg

<?xml version="1.0" encoding="UTF-8" standalone="no"?>
<!-- Generator: Adobe Illustrator 17.1.0, SVG Export Plug-In . SVG Version: 6.00 Build 0)  -->

<svg
   xmlns:dc="http://purl.org/dc/elements/1.1/"
   xmlns:cc="http://creativecommons.org/ns#"
   xmlns:rdf="http://www.w3.org/1999/02/22-rdf-syntax-ns#"
   xmlns:svg="http://www.w3.org/2000/svg"
   xmlns="http://www.w3.org/2000/svg"
   xmlns:sodipodi="http://sodipodi.sourceforge.net/DTD/sodipodi-0.dtd"
   xmlns:inkscape="http://www.inkscape.org/namespaces/inkscape"
   version="1.1"
   id="Capa_1"
   x="0px"
   y="0px"
   viewBox="0 0 80.345231 65.000001"
   xml:space="preserve"
   inkscape:version="0.91 r"
   sodipodi:docname="lego.svg"
   width="80.34523"
   height="65"><metadata
     id="metadata39"><rdf:RDF><cc:Work
         rdf:about=""><dc:format>image/svg+xml</dc:format><dc:type
           rdf:resource="http://purl.org/dc/dcmitype/StillImage" /><dc:title></dc:title></cc:Work></rdf:RDF></metadata><defs
     id="defs37"><marker
       inkscape:stockid="Arrow2Mend"
       orient="auto"
       refY="0.0"
       refX="0.0"
       id="Arrow2Mend"
       style="overflow:visible;"
       inkscape:isstock="true"><path
         id="path4401"
         style="fill-rule:evenodd;stroke-width:0.625;stroke-linejoin:round;stroke:#ebf6f9;stroke-opacity:1;fill:#ebf6f9;fill-opacity:1"
         d="M 8.7185878,4.0337352 L -2.2072895,0.016013256 L 8.7185884,-4.0017078 C 6.9730900,-1.6296469 6.9831476,1.6157441 8.7185878,4.0337352 z "
         transform="scale(0.6) rotate(180) translate(0,0)" /></marker></defs><sodipodi:namedview
     pagecolor="#ffffff"
     bordercolor="#666666"
     borderopacity="1"
     objecttolerance="10"
     gridtolerance="10"
     guidetolerance="10"
     inkscape:pageopacity="0"
     inkscape:pageshadow="2"
     inkscape:window-width="1678"
     inkscape:window-height="1031"
     id="namedview35"
     showgrid="true"
     fit-margin-top="0"
     fit-margin-left="0"
     fit-margin-right="0"
     fit-margin-bottom="0"
     inkscape:zoom="2.2417798"
     inkscape:cx="43.667813"
     inkscape:cy="92.495013"
     inkscape:window-x="0"
     inkscape:window-y="18"
     inkscape:window-maximized="0"
     inkscape:current-layer="Capa_1"><inkscape:grid
       type="xygrid"
       id="grid4718" /></sodipodi:namedview><path
     inkscape:connector-curvature="0"
     id="path4240"
     d="m 23.598288,25.0057 0,-8.921483 11.932483,0 11.932483,0 0,8.921483 0,8.921483 -11.932483,0 -11.932483,0 0,-8.921483 z"
     style="opacity:1;fill:#ffccaa;fill-opacity:1;fill-rule:evenodd;stroke:#ffccaa;stroke-width:0.84798694;stroke-linecap:butt;stroke-linejoin:round;stroke-miterlimit:4;stroke-dasharray:none;stroke-dashoffset:0;stroke-opacity:1" /><path
     inkscape:connector-curvature="0"
     id="path4242"
     d="m 12.32353,32.609179 c 0,-1.205048 0.02089,-1.345481 0.215705,-1.449741 0.288465,-0.154381 4.856051,-0.154381 5.144516,0 0.194811,0.10426 0.215706,0.244693 0.215706,1.449741 l 0,1.334299 -2.787964,0 -2.787963,0 0,-1.334299 z"
     style="opacity:1;fill:#ffaaaa;fill-opacity:1;fill-rule:evenodd;stroke:#ffaaaa;stroke-width:0.42399347;stroke-linecap:butt;stroke-linejoin:round;stroke-miterlimit:4;stroke-dasharray:none;stroke-dashoffset:0;stroke-opacity:1" /><path
     inkscape:connector-curvature="0"
     id="path4244"
     d="m 53.027796,32.716774 c 0,-1.787868 -0.170395,-1.693011 2.96535,-1.650785 2.081889,0.02804 2.525426,0.06216 2.613092,0.201044 0.05807,0.092 0.106356,0.731841 0.107295,1.421862 l 0.0017,1.254583 -2.843723,0 -2.843722,0 0,-1.226704 z"
     style="opacity:1;fill:#ffaaaa;fill-opacity:1;fill-rule:evenodd;stroke:#ffaaaa;stroke-width:0.42399347;stroke-linecap:butt;stroke-linejoin:round;stroke-miterlimit:4;stroke-dasharray:none;stroke-dashoffset:0;stroke-opacity:1" /><path
     inkscape:connector-curvature="0"
     id="path4246"
     d="m 39.422534,12.468828 c 0,-0.648051 0.05195,-1.275343 0.115442,-1.393981 0.109182,-0.204009 0.259719,-0.215706 2.776033,-0.215706 2.323235,0 2.669173,0.02237 2.72828,0.176399 0.03723,0.09702 0.06769,0.724311 0.06769,1.393981 l 0,1.217583 -2.843723,0 -2.843723,0 0,-1.178276 z"
     style="opacity:1;fill:#ffccaa;fill-opacity:1;fill-rule:evenodd;stroke:#ffccaa;stroke-width:0.42399347;stroke-linecap:butt;stroke-linejoin:round;stroke-miterlimit:4;stroke-dasharray:none;stroke-dashoffset:0;stroke-opacity:1" /><path
     inkscape:connector-curvature="0"
     id="path4248"
     d="m 25.953238,12.281002 0.03131,-1.366102 2.668587,-0.02994 c 2.060521,-0.02312 2.689046,0.0023 2.758376,0.111519 0.04939,0.07781 0.09056,0.706026 0.0915,1.396047 l 0.0017,1.254583 -2.791396,0 -2.791396,0 0.03131,-1.366102 z"
     style="opacity:1;fill:#ffccaa;fill-opacity:1;fill-rule:evenodd;stroke:#ffccaa;stroke-width:0.42399347;stroke-linecap:butt;stroke-linejoin:round;stroke-miterlimit:4;stroke-dasharray:none;stroke-dashoffset:0;stroke-opacity:1" /><path
     inkscape:connector-curvature="0"
     id="path4238"
     d="m 8.3202482,45.302074 0,-8.921483 27.2105228,0 27.210522,0 0,8.921483 0,8.921483 -27.210522,0 -27.2105228,0 0,-8.921483 z"
     style="opacity:1;fill:#ffaaaa;fill-opacity:1;fill-rule:evenodd;stroke:#ffaaaa;stroke-width:0.84798694;stroke-linecap:butt;stroke-linejoin:round;stroke-miterlimit:4;stroke-dasharray:none;stroke-dashoffset:0;stroke-opacity:1" /><path
     style="fill:#6b3c41;fill-opacity:1;stroke:#6b3c41;stroke-opacity:1"
     d="m 63.995422,56.123527 -57.0137275,0 c -0.383055,0 -0.693439,-0.310383 -0.693439,-0.693441 l 0,-20.281147 c 0,-0.383058 0.310384,-0.693442 0.693439,-0.693442 l 3.3629025,0 0,-2.940184 c 0,-1.300057 1.057633,-2.357687 2.357692,-2.357687 l 4.777796,0 c 1.300337,0 2.35797,1.05763 2.35797,2.357687 l 0,2.940184 1.772153,0 0,-19.587713 c 0,-0.383057 0.310382,-0.693434 0.693438,-0.693434 l 1.639291,0 0,-2.940184 c 0,-1.3000574 1.057634,-2.3576927 2.357693,-2.3576927 l 4.778073,0 c 1.300059,0 2.357692,1.0576353 2.357692,2.3576927 l 0,2.940184 4.104881,0 0,-2.940184 c 0,-1.3000574 1.057633,-2.3576927 2.357971,-2.3576927 l 4.777794,0 c 1.30006,0 2.357693,1.0576353 2.357693,2.3576927 l 0,2.940184 1.639291,0 c 0.383056,0 0.693439,0.310377 0.693439,0.693434 l 0,19.587713 1.77243,0 0,-2.940184 c 0,-1.300057 1.057633,-2.357687 2.357693,-2.357687 l 4.777795,0 c 1.300336,0 2.35797,1.05763 2.35797,2.357687 l 0,2.940184 3.362625,0 c 0.383055,0 0.693439,0.310384 0.693439,0.693442 l 0,20.281147 c -5.55e-4,0.383058 -0.310938,0.693441 -0.693994,0.693441 z m -56.3202888,-1.386875 55.6268498,0 0,-18.894279 -55.6268498,0 0,18.894279 z m 44.8510838,-20.281155 6.719703,0 0,-2.940184 c 0,-0.53533 -0.43548,-0.97081 -0.971094,-0.97081 l -4.777795,0 c -0.535334,0 -0.970814,0.43548 -0.970814,0.97081 l 0,2.940184 z m -29.529408,0 24.983221,0 0,-18.894271 -24.983221,0 0,18.894271 z m -11.265334,0 6.719702,0 0,-2.940184 c 0,-0.53533 -0.435481,-0.97081 -0.971092,-0.97081 l -4.777796,0 c -0.535335,0 -0.970814,0.43548 -0.970814,0.97081 l 0,2.940184 z m 27.196402,-20.281147 6.719702,0 0,-2.940184 c 0,-0.535338 -0.43548,-0.970818 -0.970813,-0.970818 l -4.777797,0 c -0.535612,0 -0.971092,0.43548 -0.971092,0.970818 l 0,2.940184 z m -13.598339,0 6.719702,0 0,-2.940184 c 0,-0.535338 -0.43548,-0.970818 -0.970816,-0.970818 l -4.778072,0 c -0.535335,0 -0.970814,0.43548 -0.970814,0.970818 l 0,2.940184 z"
     id="path3"
     inkscape:connector-curvature="0" /><ellipse
     style="opacity:1;fill:#ebf6f9;fill-opacity:1;fill-rule:evenodd;stroke:#000000;stroke-width:0.58394229;stroke-linecap:round;stroke-linejoin:round;stroke-miterlimit:4;stroke-dasharray:none;stroke-dashoffset:0;stroke-opacity:0"
     id="ellipse4366"
     cx="15.436143"
     cy="45.302074"
     rx="3.1389449"
     ry="3.1389451" /><g
     id="g5"
     transform="translate(0,-125.441)" /><g
     id="g7"
     transform="translate(0,-125.441)" /><g
     id="g9"
     transform="translate(0,-125.441)" /><g
     id="g11"
     transform="translate(0,-125.441)" /><g
     id="g13"
     transform="translate(0,-125.441)" /><g
     id="g15"
     transform="translate(0,-125.441)" /><g
     id="g17"
     transform="translate(0,-125.441)" /><g
     id="g19"
     transform="translate(0,-125.441)" /><g
     id="g21"
     transform="translate(0,-125.441)" /><g
     id="g23"
     transform="translate(0,-125.441)" /><g
     id="g25"
     transform="translate(0,-125.441)" /><g
     id="g27"
     transform="translate(0,-125.441)" /><g
     id="g29"
     transform="translate(0,-125.441)" /><g
     id="g31"
     transform="translate(0,-125.441)" /><g
     id="g33"
     transform="translate(0,-125.441)" /><ellipse
     ry="3.1389451"
     rx="3.1389449"
     cy="45.192711"
     cx="55.823692"
     id="ellipse5619"
     style="opacity:1;fill:#ebf6f9;fill-opacity:1;fill-rule:evenodd;stroke:#000000;stroke-width:0.58394229;stroke-linecap:round;stroke-linejoin:round;stroke-miterlimit:4;stroke-dasharray:none;stroke-dashoffset:0;stroke-opacity:0" /></svg>

<?xml version="1.0" encoding="UTF-8" standalone="no"?>
<!DOCTYPE svg PUBLIC "-//W3C//DTD SVG 1.1//EN" "http://www.w3.org/Graphics/SVG/1.1/DTD/svg11.dtd">
<svg width="100%" height="100%" viewBox="0 0 81 65" version="1.1" xmlns="http://www.w3.org/2000/svg" xmlns:xlink="http://www.w3.org/1999/xlink" xml:space="preserve" xmlns:serif="http://www.serif.com/" style="fill-rule:evenodd;clip-rule:evenodd;stroke-linejoin:round;">
    <g id="path4240" transform="matrix(0.75341,0,0,0.75341,13.435,4.51419)">
        <path d="M23.598,33.927L23.598,16.084L47.463,16.084L47.463,33.927L23.598,33.927Z" style="fill:rgb(255,204,170);stroke:rgb(255,204,170);stroke-width:0.85px;"/>
    </g>
    <g id="path4242" transform="matrix(0.75341,0,0,0.75341,13.435,4.51419)">
        <path d="M12.324,32.609C12.324,31.404 12.344,31.264 12.539,31.159C12.828,31.005 17.395,31.005 17.684,31.159C17.879,31.264 17.899,31.404 17.899,32.609L17.899,33.943L12.324,33.943L12.324,32.609Z" style="fill:rgb(255,170,170);stroke:rgb(255,170,170);stroke-width:0.42px;"/>
    </g>
    <g id="path4244" transform="matrix(0.75341,0,0,0.75341,13.435,4.51419)">
        <path d="M53.028,32.717C53.028,30.929 52.857,31.024 55.993,31.066C58.075,31.094 58.519,31.128 58.606,31.267C58.664,31.359 58.713,31.999 58.714,32.689L58.715,33.943L53.028,33.943L53.028,32.717L53.028,32.717Z" style="fill:rgb(255,170,170);stroke:rgb(255,170,170);stroke-width:0.42px;"/>
    </g>
    <g id="path4246" transform="matrix(0.75341,0,0,0.75341,13.435,4.51419)">
        <path d="M39.423,12.469C39.423,11.821 39.474,11.193 39.538,11.075C39.647,10.871 39.798,10.859 42.314,10.859C44.637,10.859 44.983,10.882 45.042,11.036C45.08,11.133 45.11,11.76 45.11,12.43L45.11,13.647L39.423,13.647L39.423,12.469Z" style="fill:rgb(255,204,170);stroke:rgb(255,204,170);stroke-width:0.42px;"/>
    </g>
    <g id="path4248" transform="matrix(0.75341,0,0,0.75341,13.435,4.51419)">
        <path d="M25.953,12.281L25.985,10.915L28.653,10.885C30.714,10.862 31.342,10.887 31.412,10.996C31.461,11.074 31.502,11.703 31.503,12.393L31.505,13.647L25.922,13.647L25.953,12.281L25.953,12.281Z" style="fill:rgb(255,204,170);stroke:rgb(255,204,170);stroke-width:0.42px;"/>
    </g>
    <g id="path4238" transform="matrix(0.75341,0,0,0.75341,13.435,4.51419)">
        <path d="M8.32,54.224L8.32,36.381L62.741,36.381L62.741,54.224L8.32,54.224Z" style="fill:rgb(255,170,170);stroke:rgb(255,170,170);stroke-width:0.85px;"/>
    </g>
    <g id="path3" transform="matrix(0.75341,0,0,0.75341,13.435,4.51419)">
        <path d="M63.995,56.124L6.982,56.124C6.599,56.124 6.288,55.813 6.288,55.43L6.288,35.149C6.288,34.766 6.599,34.455 6.982,34.455L10.345,34.455L10.345,31.515C10.345,30.215 11.402,29.158 12.702,29.158L17.48,29.158C18.78,29.158 19.838,30.215 19.838,31.515L19.838,34.455L21.61,34.455L21.61,14.868C21.61,14.485 21.921,14.174 22.304,14.174L23.943,14.174L23.943,11.234C23.943,9.934 25.001,8.876 26.301,8.876L31.079,8.876C32.379,8.876 33.436,9.934 33.436,11.234L33.436,14.174L37.541,14.174L37.541,11.234C37.541,9.934 38.599,8.876 39.899,8.876L44.677,8.876C45.977,8.876 47.035,9.934 47.035,11.234L47.035,14.174L48.674,14.174C49.057,14.174 49.367,14.485 49.367,14.868L49.367,34.455L51.14,34.455L51.14,31.515C51.14,30.215 52.198,29.158 53.498,29.158L58.275,29.158C59.576,29.158 60.633,30.215 60.633,31.515L60.633,34.455L63.996,34.455C64.379,34.455 64.689,34.766 64.689,35.149L64.689,55.43C64.689,55.813 64.378,56.124 63.995,56.124ZM7.675,54.737L63.302,54.737L63.302,35.842L7.675,35.842L7.675,54.737ZM52.526,34.455L59.246,34.455L59.246,31.515C59.246,30.98 58.81,30.545 58.275,30.545L53.497,30.545C52.962,30.545 52.526,30.98 52.526,31.515L52.526,34.455ZM22.997,34.455L47.98,34.455L47.98,15.561L22.997,15.561L22.997,34.455ZM11.731,34.455L18.451,34.455L18.451,31.515C18.451,30.98 18.016,30.545 17.48,30.545L12.702,30.545C12.167,30.545 11.731,30.98 11.731,31.515L11.731,34.455ZM38.928,14.174L45.648,14.174L45.648,11.234C45.648,10.699 45.212,10.263 44.677,10.263L39.899,10.263C39.363,10.263 38.928,10.699 38.928,11.234L38.928,14.174ZM25.33,14.174L32.049,14.174L32.049,11.234C32.049,10.699 31.614,10.263 31.078,10.263L26.3,10.263C25.765,10.263 25.33,10.699 25.33,11.234L25.33,14.174Z" style="fill:rgb(107,60,65);fill-rule:nonzero;stroke:rgb(107,60,65);stroke-width:1px;stroke-linejoin:miter;"/>
    </g>
    <g id="ellipse4366" transform="matrix(0.75341,0,0,0.75341,13.435,4.51419)">
        <circle cx="15.436" cy="45.302" r="3.139" style="fill:rgb(235,246,249);stroke:black;stroke-opacity:0;stroke-width:0.58px;stroke-linecap:round;"/>
    </g>
    <g id="ellipse5619" transform="matrix(0.75341,0,0,0.75341,13.435,4.51419)">
        <circle cx="55.824" cy="45.193" r="3.139" style="fill:rgb(235,246,249);stroke:black;stroke-opacity:0;stroke-width:0.58px;stroke-linecap:round;"/>
    </g>
</svg>
